flaticon/education/open-book-1.svg

<svg xmlns="http://www.w3.org/2000/svg" width="32" height="32" viewBox="0 0 24 24">
    <path d="M3.839844 6.558594L6.640625 7.679688C6.71875 7.71875 6.761719 7.71875 6.800781 7.71875 6.960938 7.71875 7.121094 7.601562 7.160156 7.441406 7.238281 7.238281 7.121094 7 6.921875 6.921875L4.121094 5.800781C3.921875 5.71875 3.679688 5.839844 3.601562 6.039062 3.519531 6.238281 3.640625 6.480469 3.839844 6.558594zM3.640625 8.238281C3.558594 8.441406 3.679688 8.679688 3.878906 8.761719L9.878906 10.960938C9.921875 11 9.960938 11 10 11 10.160156 11 10.320312 10.921875 10.398438 10.71875 10.480469 10.519531 10.359375 10.28125 10.160156 10.199219L4.160156 8C3.960938 7.921875 3.71875 8.039062 3.640625 8.238281zM10.160156 12.601562L4.160156 10.398438C3.960938 10.320312 3.71875 10.441406 3.640625 10.640625 3.558594 10.839844 3.679688 11.078125 3.878906 11.160156L9.878906 13.359375C9.921875 13.398438 9.960938 13.398438 10 13.398438 10.160156 13.398438 10.320312 13.320312 10.398438 13.121094 10.480469 12.921875 10.359375 12.679688 10.160156 12.601562zM10.160156 15L4.160156 12.800781C3.960938 12.71875 3.71875 12.839844 3.640625 13.039062 3.558594 13.238281 3.679688 13.480469 3.878906 13.558594L9.878906 15.761719C9.921875 15.800781 9.960938 15.800781 10 15.800781 10.160156 15.800781 10.320312 15.71875 10.398438 15.519531 10.480469 15.320312 10.359375 15.078125 10.160156 15zM10.160156 17.398438L4.160156 15.199219C3.960938 15.121094 3.71875 15.238281 3.640625 15.441406 3.558594 15.640625 3.679688 15.878906 3.878906 15.960938L9.878906 18.160156C9.921875 18.199219 9.960938 18.199219 10 18.199219 10.160156 18.199219 10.320312 18.121094 10.398438 17.921875 10.480469 17.71875 10.359375 17.480469 10.160156 17.398438zM10.160156 17.398438"/>
    <path d="M 23.398438 4 L 22.398438 4 L 22.398438 1.199219 C 22.398438 1.078125 22.320312 0.960938 22.238281 0.878906 C 22.121094 0.800781 22 0.800781 21.839844 0.800781 L 11.980469 3.957031 L 2.121094 0.800781 C 2 0.800781 1.878906 0.800781 1.761719 0.878906 C 1.679688 0.960938 1.601562 1.078125 1.601562 1.199219 L 1.601562 4 L 0.601562 4 C 0.28125 4 0 4.28125 0 4.601562 L 0 22.601562 C 0 22.921875 0.28125 23.199219 0.601562 23.199219 L 23.398438 23.199219 C 23.71875 23.199219 24 22.921875 24 22.640625 L 24 4.601562 C 24 4.28125 23.71875 4 23.398438 4 Z M 21.601562 4.398438 L 21.601562 19.28125 L 12.398438 22.238281 L 12.398438 4.679688 L 21.601562 1.761719 Z M 2.398438 1.761719 L 11.558594 4.667969 L 11.558594 22.257812 L 2.398438 19.320312 Z M 0.800781 22.398438 L 0.800781 4.800781 L 1.601562 4.800781 L 1.601562 19.601562 C 1.601562 19.761719 1.71875 19.921875 1.878906 20 L 9.441406 22.398438 Z M 23.199219 22.398438 L 14.585938 22.398438 L 22.121094 20 C 22.28125 19.921875 22.398438 19.761719 22.398438 19.601562 L 22.398438 4.800781 L 23.199219 4.800781 Z M 23.199219 22.398438"/>
    <path d="M14 8.601562C14.078125 8.601562 14.121094 8.601562 14.160156 8.558594L20.160156 6.359375C20.359375 6.28125 20.480469 6.039062 20.398438 5.839844 20.320312 5.640625 20.078125 5.519531 19.878906 5.601562L13.878906 7.800781C13.679688 7.878906 13.558594 8.121094 13.640625 8.320312 13.679688 8.480469 13.839844 8.601562 14 8.601562zM14 11C14.078125 11 14.121094 11 14.160156 10.960938L20.160156 8.761719C20.359375 8.679688 20.480469 8.441406 20.398438 8.238281 20.320312 8.039062 20.078125 7.921875 19.878906 8L13.878906 10.199219C13.679688 10.28125 13.558594 10.519531 13.640625 10.71875 13.679688 10.878906 13.839844 11 14 11zM14 13.398438C14.078125 13.398438 14.121094 13.398438 14.160156 13.359375L20.160156 11.160156C20.359375 11.078125 20.480469 10.839844 20.398438 10.640625 20.320312 10.441406 20.078125 10.320312 19.878906 10.398438L13.878906 12.601562C13.679688 12.679688 13.558594 12.921875 13.640625 13.121094 13.679688 13.320312 13.839844 13.398438 14 13.398438zM14 15.800781C14.078125 15.800781 14.121094 15.800781 14.160156 15.761719L20.160156 13.558594C20.359375 13.480469 20.480469 13.238281 20.398438 13.039062 20.320312 12.839844 20.078125 12.71875 19.878906 12.800781L13.878906 15C13.679688 15.078125 13.558594 15.320312 13.640625 15.519531 13.679688 15.71875 13.839844 15.800781 14 15.800781zM14 18.199219C14.078125 18.199219 14.121094 18.199219 14.160156 18.160156L20.160156 15.960938C20.359375 15.878906 20.480469 15.640625 20.398438 15.441406 20.320312 15.238281 20.078125 15.121094 19.878906 15.199219L13.878906 17.398438C13.679688 17.480469 13.558594 17.71875 13.640625 17.921875 13.679688 18.121094 13.839844 18.199219 14 18.199219zM14 18.199219"/>
</svg>

<svg xmlns="http://www.w3.org/2000/svg" width="32" height="32" viewBox="0 0 24 24">
    <path d="M3.84 6.559l2.8 1.12c.079.04.122.04.16.04a.38.38 0 0 0 .36-.278.415.415 0 0 0-.238-.52l-2.8-1.12c-.2-.082-.442.039-.52.238-.082.2.039.441.238.52zm0 0M3.64 8.238c-.081.203.04.442.239.524l6 2.199C9.922 11 9.96 11 10 11a.41.41 0 0 0 .398-.281c.082-.2-.039-.438-.238-.52L4.16 8c-.2-.078-.441.04-.52.238zm0 0M10.16 12.602l-6-2.204c-.2-.078-.441.043-.52.243-.081.199.04.437.239.52l6 2.198c.043.04.082.04.121.04.16 0 .32-.079.398-.278.082-.2-.039-.441-.238-.52zm0 0M10.16 15l-6-2.2c-.2-.081-.441.04-.52.24-.081.198.04.44.239.519l6 2.203c.043.039.082.039.121.039.16 0 .32-.082.398-.281.082-.2-.039-.442-.238-.52zm0 0M10.16 17.398l-6-2.199c-.2-.078-.441.04-.52.242-.081.2.04.438.239.52l6 2.2c.043.038.082.038.121.038.16 0 .32-.078.398-.277.082-.203-.039-.442-.238-.524zm0 0"/>
    <path d="M23.398 4h-1V1.2c0-.122-.078-.24-.16-.321C22.121.8 22 .8 21.84.8l-9.86 3.156L2.121.801C2 .8 1.88.8 1.761.879c-.081.082-.16.2-.16.32V4h-1A.618.618 0 0 0 0 4.602v18c0 .32.281.597.602.597h22.796c.32 0 .602-.277.602-.558V4.6A.618.618 0 0 0 23.398 4zm-1.796.398v14.883l-9.204 2.957V4.68l9.204-2.918zM2.398 1.762l9.16 2.906v17.59l-9.16-2.938zM.801 22.398V4.801h.8v14.8c0 .16.118.32.278.399l7.562 2.398zm22.398 0h-8.613L22.12 20c.16-.078.277-.238.277-.398V4.8h.801zm0 0"/>
    <path d="M14 8.602c.078 0 .121 0 .16-.043l6-2.2c.2-.078.32-.32.238-.52-.078-.198-.32-.32-.52-.237l-6 2.199c-.198.078-.32.32-.237.52.039.16.199.28.359.28zm0 0M14 11c.078 0 .121 0 .16-.04l6-2.198c.2-.082.32-.32.238-.524-.078-.199-.32-.316-.52-.238l-6 2.2c-.198.081-.32.32-.237.519.039.16.199.281.359.281zm0 0M14 13.398c.078 0 .121 0 .16-.039l6-2.199c.2-.082.32-.32.238-.52-.078-.199-.32-.32-.52-.242l-6 2.204c-.198.078-.32.32-.237.52.039.198.199.276.359.276zm0 0M14 15.8c.078 0 .121 0 .16-.038l6-2.203c.2-.079.32-.32.238-.52-.078-.2-.32-.32-.52-.238l-6 2.199c-.198.078-.32.32-.237.52.039.199.199.28.359.28zm0 0M14 18.2c.078 0 .121 0 .16-.04l6-2.2c.2-.081.32-.32.238-.519-.078-.203-.32-.32-.52-.242l-6 2.2c-.198.081-.32.32-.237.523.039.2.199.277.359.277zm0 0"/>
</svg>
